src/assets/images/logo/eslint-logo-white.svg

<svg width="204" height="58" viewBox="0 0 204 58" fill="none" xmlns="http://www.w3.org/2000/svg">
<path opacity="0.6" d="M46.8906 21.1093L34.3502 13.8691C34.0363 13.6879 33.6495 13.6879 33.3357 13.8691L20.795 21.1093C20.4814 21.2905 20.2878 21.6253 20.2878 21.9878V36.4681C20.2878 36.8304 20.4814 37.1654 20.795 37.347L33.3357 44.5871C33.6495 44.7684 34.0363 44.7684 34.3502 44.5871L46.8906 37.347C47.2044 37.1657 47.3978 36.8306 47.3978 36.4681V21.9878C47.3976 21.6253 47.2042 21.2905 46.8906 21.1093Z" fill="white"/>
<path d="M1.23782 27.7046L16.2212 1.63772C16.7655 0.695223 17.7709 0 18.8592 0H48.8266C49.9151 0 50.9208 0.695223 51.465 1.63772L66.4485 27.6471C66.9927 28.5899 66.9927 29.7796 66.4485 30.7224L51.465 56.5756C50.9208 57.5181 49.9151 58 48.8266 58H18.8595C17.7712 58 16.7655 57.5326 16.2215 56.5899L1.23808 30.6944C0.69329 29.7522 0.693289 28.6471 1.23782 27.7046ZM13.6449 40.2393C13.6449 40.6225 13.8756 40.977 14.2078 41.1689L33.2934 52.1803C33.6254 52.3719 34.0412 52.3719 34.3732 52.1803L53.4735 41.1689C53.8055 40.977 54.0378 40.6228 54.0378 40.2393V18.2161C54.0378 17.8327 53.8089 17.4785 53.4767 17.2866L34.3918 6.27513C34.0599 6.08327 33.6445 6.08327 33.3126 6.27513L14.2109 17.2866C13.8787 17.4785 13.6449 17.8327 13.6449 18.2161V40.2393V40.2393Z" fill="white"/>
<path d="M87.0306 43.7102V14.2899H105.776V18.871H92.1161V26.6044H104.599V31.1855H92.1161V39.129H105.986V43.7102H87.0306Z" fill="white"/>
<path d="M119.253 44.2986C117.011 44.2986 115.022 43.9063 113.285 43.1218C111.575 42.3092 110.23 41.1464 109.25 39.6334C108.269 38.1203 107.779 36.271 107.779 34.0855V32.9928H112.78V34.0855C112.78 36.0189 113.369 37.4619 114.545 38.4145C115.722 39.3672 117.291 39.8435 119.253 39.8435C121.242 39.8435 122.741 39.4372 123.75 38.6247C124.758 37.8121 125.263 36.7614 125.263 35.4725C125.263 34.6039 125.025 33.9034 124.548 33.371C124.072 32.8107 123.372 32.3623 122.447 32.0261C121.55 31.6899 120.458 31.3677 119.169 31.0594L117.908 30.8073C115.974 30.359 114.293 29.7986 112.864 29.1261C111.463 28.4256 110.385 27.529 109.628 26.4363C108.872 25.3435 108.493 23.9145 108.493 22.1493C108.493 20.3841 108.914 18.871 109.754 17.6102C110.595 16.3493 111.786 15.3826 113.327 14.7102C114.868 14.0377 116.675 13.7015 118.748 13.7015C120.822 13.7015 122.671 14.0517 124.296 14.7522C125.921 15.4527 127.196 16.5034 128.121 17.9044C129.073 19.3053 129.55 21.0566 129.55 23.158V24.545H124.548V23.158C124.548 21.9532 124.31 20.9865 123.834 20.258C123.358 19.5295 122.685 18.9971 121.816 18.6609C120.948 18.3247 119.925 18.1566 118.748 18.1566C117.011 18.1566 115.694 18.4928 114.798 19.1652C113.901 19.8377 113.453 20.7904 113.453 22.0232C113.453 22.8078 113.649 23.4802 114.041 24.0406C114.461 24.573 115.064 25.0213 115.848 25.3855C116.661 25.7218 117.67 26.016 118.874 26.2681L120.135 26.5623C122.153 27.0107 123.918 27.5851 125.431 28.2855C126.944 28.958 128.121 29.8546 128.961 30.9754C129.83 32.0962 130.264 33.5532 130.264 35.3464C130.264 37.1116 129.802 38.6667 128.877 40.0116C127.981 41.3566 126.706 42.4073 125.053 43.1638C123.428 43.9203 121.494 44.2986 119.253 44.2986Z" fill="white"/>
<path d="M133.433 43.7102V14.2899H138.519V39.129H152.304V43.7102H133.433Z" fill="white"/>
<path d="M155.161 43.7102V22.9479H159.994V43.7102H155.161ZM157.557 20.3C156.688 20.3 155.931 20.0198 155.287 19.4595C154.671 18.871 154.362 18.1005 154.362 17.1479C154.362 16.1952 154.671 15.4387 155.287 14.8783C155.931 14.2899 156.688 13.9957 157.557 13.9957C158.481 13.9957 159.238 14.2899 159.826 14.8783C160.443 15.4387 160.751 16.1952 160.751 17.1479C160.751 18.1005 160.443 18.871 159.826 19.4595C159.238 20.0198 158.481 20.3 157.557 20.3Z" fill="white"/>
<path d="M164.859 43.7102V22.9479H169.608V25.8479H170.323C170.687 25.0633 171.345 24.3208 172.298 23.6203C173.251 22.9198 174.694 22.5696 176.627 22.5696C178.224 22.5696 179.639 22.9338 180.872 23.6623C182.105 24.3909 183.057 25.3995 183.73 26.6884C184.43 27.9773 184.78 29.5044 184.78 31.2696V43.7102H179.947V31.6479C179.947 29.9667 179.527 28.7198 178.686 27.9073C177.874 27.0667 176.711 26.6464 175.198 26.6464C173.489 26.6464 172.144 27.2208 171.163 28.3696C170.182 29.4904 169.692 31.1015 169.692 33.2029V43.7102H164.859Z" fill="white"/>
<path d="M196.782 43.7102C195.437 43.7102 194.359 43.3179 193.546 42.5334C192.762 41.7208 192.369 40.6281 192.369 39.2551V26.9406H186.948V22.9479H192.369V16.2652H197.203V22.9479H203.171V26.9406H197.203V38.4566C197.203 39.2971 197.595 39.7174 198.379 39.7174H202.54V43.7102H196.782Z" fill="white"/>
</svg>

<svg width="204" height="58" fill="none" xmlns="http://www.w3.org/2000/svg"><path opacity=".6" d="m46.89 21.11-12.54-7.24a1.015 1.015 0 0 0-1.014 0l-12.541 7.24a1.015 1.015 0 0 0-.507.878v14.48c0 .362.193.697.507.879l12.54 7.24c.315.181.701.181 1.015 0l12.54-7.24c.314-.181.508-.516.508-.879v-14.48c0-.363-.194-.697-.507-.879Z" fill="#fff"/><path d="M1.238 27.705 16.22 1.638C16.765.695 17.771 0 18.86 0h29.968c1.088 0 2.094.695 2.638 1.638l14.983 26.01a3.1 3.1 0 0 1 0 3.074L51.465 56.576c-.544.942-1.55 1.424-2.638 1.424H18.86c-1.089 0-2.095-.467-2.639-1.41L1.238 30.694a2.94 2.94 0 0 1 0-2.99Zm12.407 12.534c0 .384.23.738.563.93L33.293 52.18c.332.192.748.192 1.08 0l19.1-11.011c.333-.192.565-.546.565-.93V18.216c0-.383-.23-.738-.561-.93L34.392 6.277a1.084 1.084 0 0 0-1.08 0l-19.101 11.01c-.332.192-.566.547-.566.93V40.24ZM87.03 43.71V14.29h18.746v4.581h-13.66v7.733H104.6v4.582H92.116v7.943h13.87v4.581H87.031ZM119.253 44.299c-2.242 0-4.231-.393-5.968-1.177-1.71-.813-3.055-1.976-4.035-3.489-.981-1.513-1.471-3.362-1.471-5.547v-1.093h5.001v1.093c0 1.933.589 3.376 1.765 4.328 1.177.953 2.746 1.43 4.708 1.43 1.989 0 3.488-.407 4.497-1.22 1.008-.812 1.513-1.863 1.513-3.152 0-.868-.238-1.569-.715-2.101-.476-.56-1.176-1.009-2.101-1.345-.897-.336-1.989-.658-3.278-.967l-1.261-.252c-1.934-.448-3.615-1.008-5.044-1.68-1.401-.701-2.479-1.598-3.236-2.69-.756-1.094-1.135-2.523-1.135-4.288 0-1.765.421-3.278 1.261-4.539.841-1.26 2.032-2.227 3.573-2.9 1.541-.672 3.348-1.009 5.421-1.009 2.074 0 3.923.35 5.548 1.051 1.625.7 2.9 1.751 3.825 3.152.952 1.401 1.429 3.153 1.429 5.254v1.387h-5.002v-1.387c0-1.205-.238-2.172-.714-2.9-.476-.729-1.149-1.26-2.018-1.597-.868-.336-1.891-.504-3.068-.504-1.737 0-3.054.336-3.95 1.008-.897.673-1.345 1.625-1.345 2.858 0 .785.196 1.457.588 2.018.42.532 1.023.98 1.807 1.345.813.336 1.822.63 3.026.882l1.261.294c2.018.449 3.783 1.023 5.296 1.723 1.513.673 2.69 1.57 3.53 2.69.869 1.121 1.303 2.578 1.303 4.371 0 1.766-.462 3.32-1.387 4.666-.896 1.345-2.171 2.395-3.824 3.152-1.625.756-3.559 1.135-5.8 1.135ZM133.433 43.71V14.29h5.086v24.839h13.785v4.581h-18.871ZM155.161 43.71V22.948h4.833V43.71h-4.833Zm2.396-23.41a3.35 3.35 0 0 1-2.27-.84c-.616-.589-.925-1.36-.925-2.312 0-.953.309-1.71.925-2.27a3.257 3.257 0 0 1 2.27-.882c.924 0 1.681.294 2.269.882.617.56.925 1.317.925 2.27 0 .953-.308 1.723-.925 2.311-.588.56-1.345.841-2.269.841ZM164.859 43.71V22.948h4.749v2.9h.715c.364-.785 1.022-1.527 1.975-2.228.953-.7 2.396-1.05 4.329-1.05 1.597 0 3.012.364 4.245 1.092a7.442 7.442 0 0 1 2.858 3.026c.7 1.29 1.05 2.816 1.05 4.582v12.44h-4.833V31.648c0-1.681-.42-2.928-1.261-3.74-.812-.841-1.975-1.262-3.488-1.262-1.709 0-3.054.575-4.035 1.724-.981 1.12-1.471 2.732-1.471 4.833V43.71h-4.833ZM196.782 43.71c-1.345 0-2.423-.392-3.236-1.177-.784-.812-1.177-1.905-1.177-3.278V26.941h-5.421v-3.993h5.421v-6.683h4.834v6.683h5.968v3.993h-5.968v11.516c0 .84.392 1.26 1.176 1.26h4.161v3.993h-5.758Z" fill="#fff"/></svg>
